images/svg/stars.svg

<svg width="73" height="13" viewBox="0 0 73 13" fill="none" xmlns="http://www.w3.org/2000/svg">
<path d="M6.21468 0.878116C6.30449 0.601723 6.69551 0.601722 6.78532 0.878115L7.89199 4.28409C7.93215 4.4077 8.04734 4.49139 8.1773 4.49139H11.7586C12.0492 4.49139 12.17 4.86327 11.9349 5.03409L9.0376 7.13911C8.93245 7.2155 8.88846 7.35091 8.92862 7.47452L10.0353 10.8805C10.1251 11.1569 9.80875 11.3867 9.57364 11.2159L6.67634 9.1109C6.57119 9.0345 6.42881 9.0345 6.32366 9.1109L3.42637 11.2159C3.19125 11.3867 2.87491 11.1569 2.96471 10.8805L4.07138 7.47452C4.11154 7.35091 4.06755 7.2155 3.9624 7.13911L1.0651 5.03409C0.829989 4.86327 0.950821 4.49139 1.24144 4.49139H4.8227C4.95266 4.49139 5.06785 4.4077 5.10801 4.28409L6.21468 0.878116Z" fill="#F3B705"/>
<path d="M21.2147 0.878116C21.3045 0.601723 21.6955 0.601722 21.7853 0.878115L22.892 4.28409C22.9321 4.4077 23.0473 4.49139 23.1773 4.49139H26.7586C27.0492 4.49139 27.17 4.86327 26.9349 5.03409L24.0376 7.13911C23.9325 7.2155 23.8885 7.35091 23.9286 7.47452L25.0353 10.8805C25.1251 11.1569 24.8087 11.3867 24.5736 11.2159L21.6763 9.1109C21.5712 9.0345 21.4288 9.0345 21.3237 9.1109L18.4264 11.2159C18.1913 11.3867 17.8749 11.1569 17.9647 10.8805L19.0714 7.47452C19.1115 7.35091 19.0675 7.2155 18.9624 7.13911L16.0651 5.03409C15.83 4.86327 15.9508 4.49139 16.2414 4.49139H19.8227C19.9527 4.49139 20.0679 4.4077 20.108 4.28409L21.2147 0.878116Z" fill="#F3B705"/>
<path d="M36.2147 0.878116C36.3045 0.601723 36.6955 0.601722 36.7853 0.878115L37.892 4.28409C37.9321 4.4077 38.0473 4.49139 38.1773 4.49139H41.7586C42.0492 4.49139 42.17 4.86327 41.9349 5.03409L39.0376 7.13911C38.9325 7.2155 38.8885 7.35091 38.9286 7.47452L40.0353 10.8805C40.1251 11.1569 39.8087 11.3867 39.5736 11.2159L36.6763 9.1109C36.5712 9.0345 36.4288 9.0345 36.3237 9.1109L33.4264 11.2159C33.1913 11.3867 32.8749 11.1569 32.9647 10.8805L34.0714 7.47452C34.1115 7.35091 34.0675 7.2155 33.9624 7.13911L31.0651 5.03409C30.83 4.86327 30.9508 4.49139 31.2414 4.49139H34.8227C34.9527 4.49139 35.0679 4.4077 35.108 4.28409L36.2147 0.878116Z" fill="#F3B705"/>
<path d="M51.2147 0.878116C51.3045 0.601723 51.6955 0.601722 51.7853 0.878115L52.892 4.28409C52.9321 4.4077 53.0473 4.49139 53.1773 4.49139H56.7586C57.0492 4.49139 57.17 4.86327 56.9349 5.03409L54.0376 7.13911C53.9325 7.2155 53.8885 7.35091 53.9286 7.47452L55.0353 10.8805C55.1251 11.1569 54.8087 11.3867 54.5736 11.2159L51.6763 9.1109C51.5712 9.0345 51.4288 9.0345 51.3237 9.1109L48.4264 11.2159C48.1913 11.3867 47.8749 11.1569 47.9647 10.8805L49.0714 7.47452C49.1115 7.35091 49.0675 7.2155 48.9624 7.13911L46.0651 5.03409C45.83 4.86327 45.9508 4.49139 46.2414 4.49139H49.8227C49.9527 4.49139 50.0679 4.4077 50.108 4.28409L51.2147 0.878116Z" fill="#F3B705"/>
<path d="M65.5835 4.4386L66.5 1.61803L67.4165 4.4386C67.5236 4.76822 67.8307 4.99139 68.1773 4.99139H71.143L68.7437 6.7346C68.4633 6.93831 68.346 7.29941 68.4531 7.62902L69.3695 10.4496L66.9702 8.70639C66.6898 8.50267 66.3102 8.50267 66.0298 8.70639L63.6305 10.4496L64.5469 7.62902C64.654 7.29941 64.5367 6.93831 64.2563 6.7346L61.857 4.99139H64.8227C65.1693 4.99139 65.4764 4.76822 65.5835 4.4386Z" stroke="#F3B705"/>
</svg>

<svg xmlns="http://www.w3.org/2000/svg" width="73" height="13" fill="none"><path fill="#F3B705" d="M6.215.878a.3.3 0 0 1 .57 0l1.107 3.406a.3.3 0 0 0 .285.207h3.582a.3.3 0 0 1 .176.543L9.038 7.14a.3.3 0 0 0-.11.336l1.107 3.405a.3.3 0 0 1-.461.336L6.676 9.11a.3.3 0 0 0-.352 0l-2.898 2.105a.3.3 0 0 1-.461-.335L4.07 7.474a.3.3 0 0 0-.109-.336L1.065 5.034a.3.3 0 0 1 .176-.543h3.582a.3.3 0 0 0 .285-.207L6.215.878ZM21.215.878a.3.3 0 0 1 .57 0l1.107 3.406a.3.3 0 0 0 .285.207h3.582a.3.3 0 0 1 .176.543L24.038 7.14a.3.3 0 0 0-.11.336l1.107 3.405a.3.3 0 0 1-.461.336L21.676 9.11a.3.3 0 0 0-.352 0l-2.898 2.105a.3.3 0 0 1-.461-.335l1.106-3.406a.3.3 0 0 0-.109-.336l-2.897-2.105a.3.3 0 0 1 .176-.543h3.582a.3.3 0 0 0 .285-.207L21.215.878ZM36.215.878a.3.3 0 0 1 .57 0l1.107 3.406a.3.3 0 0 0 .285.207h3.582a.3.3 0 0 1 .176.543L39.038 7.14a.3.3 0 0 0-.11.336l1.107 3.405a.3.3 0 0 1-.461.336L36.676 9.11a.3.3 0 0 0-.352 0l-2.898 2.105a.3.3 0 0 1-.461-.335l1.106-3.406a.3.3 0 0 0-.109-.336l-2.897-2.105a.3.3 0 0 1 .176-.543h3.582a.3.3 0 0 0 .285-.207L36.215.878ZM51.215.878a.3.3 0 0 1 .57 0l1.107 3.406a.3.3 0 0 0 .285.207h3.582a.3.3 0 0 1 .176.543L54.038 7.14a.3.3 0 0 0-.11.336l1.107 3.405a.3.3 0 0 1-.461.336L51.676 9.11a.3.3 0 0 0-.352 0l-2.898 2.105a.3.3 0 0 1-.461-.335l1.106-3.406a.3.3 0 0 0-.109-.336l-2.897-2.105a.3.3 0 0 1 .176-.543h3.582a.3.3 0 0 0 .285-.207L51.215.878Z"/><path stroke="#F3B705" d="m65.584 4.439.916-2.821.916 2.82a.8.8 0 0 0 .761.553h2.966l-2.4 1.744a.8.8 0 0 0-.29.894l.916 2.82-2.399-1.743a.8.8 0 0 0-.94 0l-2.4 1.744.917-2.821a.8.8 0 0 0-.29-.894l-2.4-1.744h2.966a.8.8 0 0 0 .76-.552Z"/></svg>
